symbols/web/wine_bar/materialsymbolsrounded/wine_bar_wght100gradN25fill1_24px.svg

<svg xmlns="http://www.w3.org/2000/svg" height="24" width="24"><path d="M9.25 19.65q-.125 0-.212-.088-.088-.087-.088-.212 0-.15.088-.238.087-.087.212-.087h2.45v-4.7Q9.525 14 8.363 12.488 7.2 10.975 7.2 9V5.05q0-.325.2-.525t.5-.2h8.225q.275 0 .488.212.212.213.212.488V9q0 1.975-1.175 3.488-1.175 1.512-3.325 1.837v4.7h2.425q.125 0 .225.1t.1.225q0 .125-.1.212-.1.088-.225.088ZM7.825 8.675H16.2V4.95H7.825Z"/></svg>

<svg xmlns="http://www.w3.org/2000/svg" height="24" width="24"><path d="M9.25 19.65Q9.125 19.65 9.038 19.562Q8.95 19.475 8.95 19.35Q8.95 19.2 9.038 19.112Q9.125 19.025 9.25 19.025H11.7V14.325Q9.525 14 8.363 12.488Q7.2 10.975 7.2 9V5.05Q7.2 4.725 7.4 4.525Q7.6 4.325 7.9 4.325H16.125Q16.4 4.325 16.613 4.537Q16.825 4.75 16.825 5.025V9Q16.825 10.975 15.65 12.488Q14.475 14 12.325 14.325V19.025H14.75Q14.875 19.025 14.975 19.125Q15.075 19.225 15.075 19.35Q15.075 19.475 14.975 19.562Q14.875 19.65 14.75 19.65ZM7.825 8.675H16.2V4.95H7.825Z"/></svg>
